asset/search.svg

<svg width="55" height="55" viewBox="0 0 55 55" fill="none" xmlns="http://www.w3.org/2000/svg">
<path d="M33.9285 24.9286C33.9285 29.8906 29.8906 33.9286 24.9285 33.9286C19.9664 33.9286 15.9285 29.8906 15.9285 24.9286C15.9285 19.9665 19.9664 15.9286 24.9285 15.9286C29.8906 15.9286 33.9285 19.9665 33.9285 24.9286ZM44.2142 41.6429C44.2142 40.9598 43.933 40.2969 43.4709 39.8348L36.5803 32.9442C38.2075 30.5937 39.0714 27.7812 39.0714 24.9286C39.0714 17.1138 32.7432 10.7857 24.9285 10.7857C17.1138 10.7857 10.7856 17.1138 10.7856 24.9286C10.7856 32.7433 17.1138 39.0714 24.9285 39.0714C27.7812 39.0714 30.5937 38.2076 32.9441 36.5803L39.8348 43.4509C40.2968 43.933 40.9598 44.2143 41.6428 44.2143C43.049 44.2143 44.2142 43.0491 44.2142 41.6429Z" fill="white"/>
</svg>

<svg width="55" height="55" fill="none" xmlns="http://www.w3.org/2000/svg"><path d="M33.928 24.929c0 4.962-4.037 9-9 9-4.962 0-9-4.038-9-9s4.038-9 9-9c4.963 0 9 4.037 9 9zm10.286 16.714c0-.683-.281-1.346-.743-1.808l-6.89-6.89a14.11 14.11 0 0 0 2.49-8.016c0-7.815-6.328-14.143-14.142-14.143-7.815 0-14.143 6.328-14.143 14.143 0 7.814 6.328 14.142 14.143 14.142a14.11 14.11 0 0 0 8.015-2.49l6.89 6.87a2.521 2.521 0 0 0 1.809.763 2.59 2.59 0 0 0 2.571-2.571z" fill="#fff"/></svg>
